themes/default/assets/images/icons/mid/showcase.svg

<?xml version="1.0" encoding="UTF-8"?>
<svg width="100px" height="75px" viewBox="0 0 100 75" version="1.1" xmlns="http://www.w3.org/2000/svg" xmlns:xlink="http://www.w3.org/1999/xlink">
    <!-- Generator: sketchtool 59 (101010) - https://sketch.com -->
    <title>55EB1BE3-FE7A-4A3C-A36F-962D555BCB1F</title>
    <desc>Created with sketchtool.</desc>
    <g id="Page-1" stroke="none" stroke-width="1" fill="none" fill-rule="evenodd">
        <g id="Icons" transform="translate(-134.000000, -3145.000000)" fill-rule="nonzero">
            <g id="mid-icon-showcase" transform="translate(134.000000, 3145.000000)">
                <path d="M99.0196078,55.875 L99.0196078,55.875 L99.0196078,5.31907895 C99.1159329,3.87171966 98.6240965,2.44705163 97.6568627,1.37171053 C96.5842506,0.407237841 95.1701145,-0.0802902392 93.7352941,0.0197368421 L6.26470588,0.0493421053 C2.81372549,0.0592105263 0.980392157,1.90460526 0.980392157,5.38815789 L0.980392157,58.5592105 L0.980392157,58.5592105 L0.980392157,62.4473684 C0.886339639,63.894419 1.37787652,65.3182195 2.34313725,66.3947368 C3.41689314,67.3572408 4.83018103,67.8444765 6.26470588,67.7467105 L39.9705882,67.7467105 C39.7941176,71.8026316 38.0098039,72.4440789 36.5882353,72.6809211 L34.4313725,72.6809211 L34.4313725,74.0526316 L65.1078431,74.0526316 L65.1078431,72.6118421 L63.7254902,72.6118421 C62.2843137,72.4243421 60.5098039,71.7927632 60.3333333,67.7269737 L93.754902,67.7269737 C97.2058824,67.7269737 99.0392157,65.8717105 99.0294118,62.3881579 L99.0196078,55.875 Z M6.26470588,1.43092105 L93.6862745,1.37171053 L93.745098,1.37171053 C94.8163203,1.29813001 95.8731564,1.65272633 96.6862745,2.35855263 C97.3846896,3.17861763 97.7365757,4.24122097 97.6666667,5.31907895 L97.6666667,57.1184211 L2.40196078,57.2368421 L2.40196078,55.9539474 L2.40196078,55.9539474 L2.40196078,5.39802632 C2.35294118,2.65460526 3.55882353,1.43092105 6.26470588,1.43092105 Z M60.4803922,72.6315789 L39.8039216,72.7203947 C40.6078431,71.9111842 41.2254902,70.125 41.3333333,67.7861842 L58.9803922,67.7861842 C58.9491627,69.5217391 59.4752364,71.2210956 60.4803922,72.6315789 L60.4803922,72.6315789 Z M93.754902,66.3355263 L58.9803922,66.3355263 L41.3333333,66.3355263 L6.33333333,66.3355263 C5.26373506,66.3965718 4.2114476,66.0435016 3.39215686,65.3486842 C2.69000139,64.530756 2.33758972,63.4665655 2.41176471,62.3881579 L2.41176471,58.5592105 L97.6666667,58.4901316 L97.6666667,62.3684211 C97.6666667,65.0723684 96.4215686,66.3256579 93.754902,66.3355263 Z" id="Shape" fill="#A8C5DD"></path>
                <path d="M32.2647059,30.1480263 L8.88235294,30.0098684 L8.99019608,9.375 L32.3529412,9.51315789 L32.2647059,30.1480263 Z M10.2647059,28.6184211 L30.8529412,28.7467105 L31,10.8552632 L10.3529412,10.7565789 L10.2647059,28.6184211 Z" id="Shape" fill="#032663"></path>
                <path d="M29.627451,38.3289474 L9.52941176,38.2105263 C9.27010894,38.24212 9.01590363,38.1206268 8.8763309,37.8983972 C8.73675817,37.6761675 8.73675817,37.3929114 8.8763309,37.1706818 C9.01590363,36.9484521 9.27010894,36.8269589 9.52941176,36.8585526 L29.627451,36.9769737 C29.8867538,36.94538 30.1409591,37.0668732 30.2805318,37.2891028 C30.4201046,37.5113325 30.4201046,37.7945886 30.2805318,38.0168182 C30.1409591,38.2390479 29.8867538,38.3605411 29.627451,38.3289474 Z" id="Path" fill="#2969F6"></path>
                <path d="M26.7254902,43.125 L9.50980392,43.0164474 C9.32870016,43.0190896 9.15410782,42.9485181 9.02511662,42.8205331 C8.89612542,42.6925481 8.82352941,42.5178407 8.82352941,42.3355263 C8.82352941,42.155829 8.8950922,41.9836314 9.02224493,41.8574971 C9.14939766,41.7313627 9.32149649,41.6618311 9.5,41.6644737 L26.7254902,41.7730263 C26.984793,41.7414326 27.2389983,41.8629258 27.3785711,42.0851555 C27.5181438,42.3073851 27.5181438,42.5906412 27.3785711,42.8128709 C27.2389983,43.0351005 26.984793,43.1565937 26.7254902,43.125 L26.7254902,43.125 Z" id="Path" fill="#2969F6"></path>
                <path d="M17.1176471,47.8815789 L9.48039216,47.8223684 C9.22108933,47.8539621 8.96688402,47.7324689 8.82731129,47.5102393 C8.68773856,47.2880096 8.68773856,47.0047535 8.82731129,46.7825239 C8.96688402,46.5602942 9.22108933,46.438801 9.48039216,46.4703947 L17.1176471,46.5296053 C17.4573321,46.5709928 17.7128278,46.8611765 17.7128278,47.2055921 C17.7128278,47.5500077 17.4573321,47.8401914 17.1176471,47.8815789 L17.1176471,47.8815789 Z" id="Path" fill="#2969F6"></path>
                <path d="M61.6764706,30.1480263 L38.2941176,30.0098684 L38.4019608,9.375 L61.7647059,9.51315789 L61.6764706,30.1480263 Z M39.6764706,28.6184211 L60.3137255,28.7467105 L60.4117647,10.8552632 L39.7647059,10.7565789 L39.6764706,28.6184211 Z" id="Shape" fill="#032663"></path>
                <path d="M59.0392157,38.3289474 L38.9411765,38.2105263 C38.6818736,38.24212 38.4276683,38.1206268 38.2880956,37.8983972 C38.1485229,37.6761675 38.1485229,37.3929114 38.2880956,37.1706818 C38.4276683,36.9484521 38.6818736,36.8269589 38.9411765,36.8585526 L59.0392157,36.9769737 C59.2985185,36.94538 59.5527238,37.0668732 59.6922965,37.2891028 C59.8318693,37.5113325 59.8318693,37.7945886 59.6922965,38.0168182 C59.5527238,38.2390479 59.2985185,38.3605411 59.0392157,38.3289474 L59.0392157,38.3289474 Z" id="Path" fill="#2969F6"></path>
                <path d="M56.1372549,43.125 L38.9215686,43.0164474 C38.7404649,43.0190896 38.5658725,42.9485181 38.4368813,42.8205331 C38.3078901,42.6925481 38.2352941,42.5178407 38.2352941,42.3355263 C38.2352941,42.155829 38.3068569,41.9836314 38.4340096,41.8574971 C38.5611624,41.7313627 38.7332612,41.6618311 38.9117647,41.6644737 L56.1372549,41.7730263 C56.3965577,41.7414326 56.650763,41.8629258 56.7903358,42.0851555 C56.9299085,42.3073851 56.9299085,42.5906412 56.7903358,42.8128709 C56.650763,43.0351005 56.3965577,43.1565937 56.1372549,43.125 L56.1372549,43.125 Z" id="Path" fill="#2969F6"></path>
                <path d="M46.5294118,47.8815789 L38.8921569,47.8223684 C38.5524718,47.7809808 38.2969761,47.4907972 38.2969761,47.1463816 C38.2969761,46.801966 38.5524718,46.5117823 38.8921569,46.4703947 L46.5294118,46.5296053 C46.7887146,46.4980115 47.0429199,46.6195047 47.1824926,46.8417344 C47.3220654,47.0639641 47.3220654,47.3472201 47.1824926,47.5694498 C47.0429199,47.7916795 46.7887146,47.9131727 46.5294118,47.8815789 Z" id="Path" fill="#2969F6"></path>
                <path d="M91.0882353,30.1480263 L67.7058824,30.0098684 L67.8137255,9.375 L91.1764706,9.51315789 L91.0882353,30.1480263 Z M69.0882353,28.6184211 L89.6764706,28.7467105 L89.8235294,10.8552632 L69.1764706,10.7565789 L69.0882353,28.6184211 Z" id="Shape" fill="#032663"></path>
                <path d="M88.4509804,38.3289474 L68.3529412,38.2105263 C68.0936384,38.24212 67.839433,38.1206268 67.6998603,37.8983972 C67.5602876,37.6761675 67.5602876,37.3929114 67.6998603,37.1706818 C67.839433,36.9484521 68.0936384,36.8269589 68.3529412,36.8585526 L88.4509804,36.9769737 C88.7102832,36.94538 88.9644885,37.0668732 89.1040613,37.2891028 C89.243634,37.5113325 89.243634,37.7945886 89.1040613,38.0168182 C88.9644885,38.2390479 88.7102832,38.3605411 88.4509804,38.3289474 Z" id="Path" fill="#2969F6"></path>
                <path d="M85.5490196,43.125 L68.3333333,43.0164474 C68.1522296,43.0190896 67.9776372,42.9485181 67.848646,42.8205331 C67.7196548,42.6925481 67.6470588,42.5178407 67.6470588,42.3355263 C67.6470588,42.155829 67.7186216,41.9836314 67.8457743,41.8574971 C67.9729271,41.7313627 68.1450259,41.6618311 68.3235294,41.6644737 L85.5490196,41.7730263 C85.8083224,41.7414326 86.0625277,41.8629258 86.2021005,42.0851555 C86.3416732,42.3073851 86.3416732,42.5906412 86.2021005,42.8128709 C86.0625277,43.0351005 85.8083224,43.1565937 85.5490196,43.125 L85.5490196,43.125 Z" id="Path" fill="#2969F6"></path>
                <path d="M75.9411765,47.8815789 L68.3039216,47.8223684 C68.0446187,47.8539621 67.7904134,47.7324689 67.6508407,47.5102393 C67.511268,47.2880096 67.511268,47.0047535 67.6508407,46.7825239 C67.7904134,46.5602942 68.0446187,46.438801 68.3039216,46.4703947 L75.9411765,46.5296053 C76.2004793,46.4980115 76.4546846,46.6195047 76.5942573,46.8417344 C76.7338301,47.0639641 76.7338301,47.3472201 76.5942573,47.5694498 C76.4546846,47.7916795 76.2004793,47.9131727 75.9411765,47.8815789 L75.9411765,47.8815789 Z" id="Path" fill="#2969F6"></path>
            </g>
        </g>
    </g>
</svg>

<svg width="100" height="75" xmlns="http://www.w3.org/2000/svg"><g fill-rule="nonzero" fill="none"><path d="M99.02 55.875V5.319a5.37 5.37 0 00-1.363-3.947A5.312 5.312 0 0093.735.02L6.265.05C2.814.06.98 1.904.98 5.387v57.059a5.39 5.39 0 001.363 3.948 5.331 5.331 0 003.922 1.352H39.97c-.177 4.056-1.961 4.697-3.383 4.934h-2.157v1.372h30.677v-1.441h-1.383c-1.44-.188-3.215-.82-3.392-4.885h33.422c3.45 0 5.284-1.855 5.274-5.339l-.01-6.513zM6.265 1.431l87.421-.06h.06a4.061 4.061 0 012.94.988c.699.82 1.05 1.882.98 2.96v51.8l-95.264.118V5.398c-.05-2.743 1.157-3.967 3.863-3.967zm54.215 71.2l-20.676.09c.804-.81 1.421-2.596 1.53-4.935H58.98a8.1 8.1 0 001.5 4.846zm33.275-6.295H6.333a4.178 4.178 0 01-2.94-.987 4.113 4.113 0 01-.981-2.96v-3.83l95.255-.069v3.878c0 2.704-1.245 3.958-3.912 3.968z" fill="#A8C5DD"/><path d="M32.265 30.148L8.882 30.01 8.99 9.375l23.363.138-.088 20.635zm-22-1.53l20.588.129L31 10.855l-20.647-.098-.088 17.861z" fill="#032663"/><path d="M29.627 38.329L9.53 38.21a.675.675 0 01-.653-.313.685.685 0 010-.727.675.675 0 01.653-.312l20.098.118c.26-.032.514.09.654.312s.14.506 0 .728a.675.675 0 01-.654.312zM26.725 43.125L9.51 43.016a.674.674 0 01-.485-.195.683.683 0 01-.003-.964.664.664 0 01.478-.193l17.225.109c.26-.032.514.09.654.312s.14.506 0 .728a.675.675 0 01-.654.312zM17.118 47.882l-7.638-.06a.675.675 0 01-.653-.312.685.685 0 010-.727.675.675 0 01.653-.313l7.638.06a.68.68 0 01.595.676.68.68 0 01-.595.676z" fill="#2969F6"/><path d="M61.676 30.148l-23.382-.138.108-20.635 23.363.138-.089 20.635zm-22-1.53l20.638.129.098-17.892-20.647-.098-.089 17.861z" fill="#032663"/><path d="M59.04 38.329L38.94 38.21a.675.675 0 01-.653-.313.685.685 0 010-.727.675.675 0 01.653-.312l20.098.118c.26-.032.514.09.653.312.14.222.14.506 0 .728a.675.675 0 01-.653.312zM56.137 43.125l-17.215-.109a.674.674 0 01-.485-.195.683.683 0 01-.003-.964.664.664 0 01.478-.193l17.225.109c.26-.032.514.09.653.312.14.222.14.506 0 .728a.675.675 0 01-.653.312zM46.53 47.882l-7.638-.06a.68.68 0 01-.595-.676.68.68 0 01.595-.676l7.637.06c.26-.032.514.09.653.312.14.222.14.505 0 .727a.675.675 0 01-.653.313z" fill="#2969F6"/><path d="M91.088 30.148l-23.382-.138.108-20.635 23.362.138-.088 20.635zm-22-1.53l20.588.129.148-17.892-20.648-.098-.088 17.861z" fill="#032663"/><path d="M88.451 38.329l-20.098-.118a.675.675 0 01-.653-.313.685.685 0 010-.727.675.675 0 01.653-.312l20.098.118c.26-.032.513.09.653.312s.14.506 0 .728a.675.675 0 01-.653.312zM85.549 43.125l-17.216-.109a.674.674 0 01-.484-.195.683.683 0 01-.003-.964.664.664 0 01.478-.193l17.225.109c.26-.032.514.09.653.312.14.222.14.506 0 .728a.675.675 0 01-.653.312zM75.941 47.882l-7.637-.06a.675.675 0 01-.653-.312.685.685 0 010-.727.675.675 0 01.653-.313l7.637.06c.26-.032.514.09.653.312.14.222.14.505 0 .727a.675.675 0 01-.653.313z" fill="#2969F6"/></g></svg>
